assets/cursors/south-east.svg

<svg height="13.5pt" viewBox="0 0 13.5 13.5" width="13.5pt" xmlns="http://www.w3.org/2000/svg"><path d="m1.25 7.273438s6-6 6-6 9.046875 9.046874 9.046875 9.046874 6-6 6-6v18h-18s6-6 6-6-9.046875-9.046874-9.046875-9.046874zm0 0" fill="#ebebeb" fill-rule="evenodd" stroke="#000" stroke-linecap="square" stroke-miterlimit="1.414214" transform="scale(.5)"/></svg>

<?xml version="1.0" encoding="UTF-8"?>
<svg xmlns="http://www.w3.org/2000/svg" xmlns:xlink="http://www.w3.org/1999/xlink" width="13.5pt" height="13.5pt" viewBox="0 0 13.5 13.5" version="1.1">
<g id="surface1">
<path style="fill-rule:evenodd;fill:rgb(92.155457%,92.155457%,92.155457%);fill-opacity:1;stroke-width:1;stroke-linecap:square;stroke-linejoin:miter;stroke:rgb(0%,0%,0%);stroke-opacity:1;stroke-miterlimit:1.414214;" d="M 1.25 7.273438 C 1.25 7.273438 7.25 1.273438 7.25 1.273438 C 7.25 1.273438 16.296875 10.320312 16.296875 10.320312 C 16.296875 10.320312 22.296875 4.320312 22.296875 4.320312 C 22.296875 4.320312 22.296875 22.320312 22.296875 22.320312 C 22.296875 22.320312 4.296875 22.320312 4.296875 22.320312 C 4.296875 22.320312 10.296875 16.320312 10.296875 16.320312 C 10.296875 16.320312 1.25 7.273438 1.25 7.273438 Z M 1.25 7.273438 " transform="matrix(0.5,0,0,0.5,0,0)"/>
</g>
</svg>
